rospo-icon-theme-classic-common/24x24/places/folder-orange-video.svg

<svg height="24" width="24" xmlns="http://www.w3.org/2000/svg"><rect height="12" opacity=".2" rx="1" width="20" x="2" y="9.5"/><path d="m2 17c0 .554.446 1 1 1h18c .554 0 1-.446 1-1v-11c0-.554-.446-1-1-1h-10v-1c0-.554-.446-1-1-1h-7c-.554 0-1 .446-1 1" fill="#dd772f"/><rect height="12" opacity=".2" rx="1" width="20" x="2" y="8.5"/><rect fill="#e4e4e4" height="8" rx="1" width="16" x="4" y="7"/><rect fill="#ee923a" height="12" rx="1" width="20" x="2" y="9"/><path d="m3 3c-.554 0-1 .446-1 1v .5c0-.554.446-1 1-1h7c .554 0 1 .446 1 1v-.5c0-.554-.446-1-1-1zm8 2v .5h10c .554 0 1 .446 1 1v-.5c0-.554-.446-1-1-1z" fill="#fff" opacity=".1"/><path d="m8.5 12c-.277 0-.5.223-.5.5v4c0 .277.223.5.5.5h5c .277 0 .5-.223.5-.5v-2-2c0-.277-.223-.5-.5-.5zm5.5 2.5 2 1.5v-3z" fill="#533314"/></svg>

<svg xmlns="http://www.w3.org/2000/svg" width="24" height="24" version="1">
 <rect style="opacity:0.2" width="20" height="12" x="2" y="9.5" rx="1" ry="1"/>
 <path style="fill:#dd772f" d="M 2,17 C 2,17.554 2.446,18 3,18 H 21 C 21.554,18 22,17.554 22,17 V 6 C 22,5.446 21.554,5 21,5 H 11 V 4 C 11,3.446 10.554,3 10,3 H 3 C 2.446,3 2,3.446 2,4"/>
 <rect style="opacity:0.2" width="20" height="12" x="2" y="8.5" rx="1" ry="1"/>
 <rect style="fill:#dcdcdc" width="16" height="8" x="4" y="7" rx="1" ry="1"/>
 <rect style="fill:#ee923a" width="20" height="12" x="2" y="9" rx="1" ry="1"/>
 <path style="opacity:0.1;fill:#ffffff" d="M 3,3 C 2.446,3 2,3.446 2,4 V 4.5 C 2,3.946 2.446,3.5 3,3.5 H 10 C 10.554,3.5 11,3.946 11,4.5 V 4 C 11,3.446 10.554,3 10,3 Z M 11,5 V 5.5 H 21 C 21.554,5.5 22,5.946 22,6.5 V 6 C 22,5.446 21.554,5 21,5 Z"/>
 <path style="fill:#533314" d="M 8.5 12 C 8.223 12 8 12.223 8 12.5 L 8 16.5 C 8 16.777 8.223 17 8.5 17 L 13.5 17 C 13.777 17 14 16.777 14 16.5 L 14 14.5 L 14 12.5 C 14 12.223 13.777 12 13.5 12 L 8.5 12 z M 14 14.5 L 16 16 L 16 13 L 14 14.5 z"/>
</svg>
